X: 652
T: Yongbuneng zhu niangjia
L: 1/4
M: 2/4
K: G
BB/ A/ [I:setbarnb 1]| 
GE | 
BB/ A/ | 
GE | 
BB/ A/ | 
G3/A/ | 
B3/G/ | 
AA | 
EE/ G/ | 
AA | 
G/ E/D | 
D2 | 
B/ B/ B/ A/ | 
GE | 
B/ B/ B/ A/ | 
GE | 
BB/ A/ | 
G3/A/ | 
B3/G/ | 
AA | 
d3/G/ | 
AA | 
EE/ G/ | 
AA | 
G/ E/D | 
D2 |]

@@@ Tune index: 9526
